assets/components_previews/charts/light/radialbarchart.svg

<svg xmlns="http://www.w3.org/2000/svg" width="320" height="232" fill="none" viewBox="0 0 320 232"><g filter="url(#a)"><rect width="216" height="108" x="52" y="62" fill="#fff" rx="12"/><path fill="#FAF8FF" d="M196 116c0 19.882-16.118 36-36 36s-36-16.118-36-36 16.118-36 36-36 36 16.118 36 36m-64.014 0c0 15.472 12.542 28.014 28.014 28.014s28.014-12.542 28.014-28.014S175.472 87.986 160 87.986 131.986 100.528 131.986 116"/><path fill="#FAF8FF" d="M186 116c0 14.359-11.641 26-26 26s-26-11.641-26-26 11.641-26 26-26 26 11.641 26 26m-43.997 0c0 9.939 8.058 17.997 17.997 17.997s17.997-8.058 17.997-17.997S169.939 98.003 160 98.003s-17.997 8.058-17.997 17.997"/><path fill="#FAF8FF" d="M176 116c0 8.837-7.163 16-16 16s-16-7.163-16-16 7.163-16 16-16 16 7.163 16 16m-24.059 0a8.059 8.059 0 1 0 16.118 0 8.059 8.059 0 1 0-16.118 0"/><path fill="#EBE4FF" d="M169.188 85.34c.633-2.113 2.87-3.332 4.899-2.47a36 36 0 1 1-47.847 20.63c.766-2.068 3.188-2.858 5.159-1.868s2.735 3.385 2.035 5.476a28.02 28.02 0 0 0 6.186 28.114 28.02 28.02 0 0 0 44.221-4.51 28.016 28.016 0 0 0-12.069-40.133c-2.001-.927-3.217-3.127-2.584-5.24"/><path fill="#D4CAFE" d="M166.315 94.927c.634-2.116-.568-4.38-2.757-4.682a26 26 0 1 0 21.709 31.885c.521-2.147-1.145-4.095-3.347-4.281s-4.095 1.474-4.762 3.58a17.996 17.996 0 1 1-15.919-23.383c2.203.152 4.441-1.002 5.076-3.119"/><path fill="#EBE4FF" d="M153.612 105.807c-1.165-1.858-.606-4.364 1.481-5.036a15.999 15.999 0 1 1-10.684 18.825c-.493-2.136 1.372-3.901 3.564-3.854s3.851 1.963 4.846 3.917q.309.605.718 1.155a8.06 8.06 0 0 0 9.548 2.631 8.06 8.06 0 0 0 2.488-13.267 8.06 8.06 0 0 0-6.114-2.219c-2.188.147-4.683-.294-5.847-2.152"/></g><defs><filter id="a" width="256" height="148" x="32" y="54" color-interpolation-filters="sRGB" filterUnits="userSpaceOnUse"><feFlood flood-opacity="0" result="BackgroundImageFix"/><feColorMatrix in="SourceAlpha" result="hardAlpha" values="0 0 0 0 0 0 0 0 0 0 0 0 0 0 0 0 0 0 127 0"/><feOffset dy="12"/><feGaussianBlur stdDeviation="10"/><feComposite in2="hardAlpha" operator="out"/><feColorMatrix values="0 0 0 0 0 0 0 0 0 0 0 0 0 0 0 0 0 0 0.03 0"/><feBlend in2="BackgroundImageFix" result="effect1_dropShadow_10191_39834"/><feColorMatrix in="SourceAlpha" result="hardAlpha" values="0 0 0 0 0 0 0 0 0 0 0 0 0 0 0 0 0 0 127 0"/><feOffset dy="2"/><feGaussianBlur stdDeviation="3"/><feComposite in2="hardAlpha" operator="out"/><feColorMatrix values="0 0 0 0 0 0 0 0 0 0 0 0 0 0 0 0 0 0 0.05 0"/><feBlend in2="effect1_dropShadow_10191_39834" result="effect2_dropShadow_10191_39834"/><feBlend in="SourceGraphic" in2="effect2_dropShadow_10191_39834" result="shape"/></filter></defs></svg>

<svg width="320" height="232" viewBox="0 0 320 232" fill="none" xmlns="http://www.w3.org/2000/svg">
<g filter="url(#filter0_dd_10191_39834)">
<rect x="52" y="62" width="216" height="108" rx="12" fill="white"/>
<path d="M196 116C196 135.882 179.882 152 160 152C140.118 152 124 135.882 124 116C124 96.1177 140.118 80 160 80C179.882 80 196 96.1177 196 116ZM131.986 116C131.986 131.472 144.528 144.014 160 144.014C175.472 144.014 188.014 131.472 188.014 116C188.014 100.528 175.472 87.9856 160 87.9856C144.528 87.9856 131.986 100.528 131.986 116Z" fill="#FAF8FF"/>
<path d="M186 116C186 130.359 174.359 142 160 142C145.641 142 134 130.359 134 116C134 101.641 145.641 90 160 90C174.359 90 186 101.641 186 116ZM142.003 116C142.003 125.939 150.061 133.997 160 133.997C169.939 133.997 177.997 125.939 177.997 116C177.997 106.061 169.939 98.0033 160 98.0033C150.061 98.0033 142.003 106.061 142.003 116Z" fill="#FAF8FF"/>
<path d="M176 116C176 124.837 168.837 132 160 132C151.163 132 144 124.837 144 116C144 107.163 151.163 100 160 100C168.837 100 176 107.163 176 116ZM151.941 116C151.941 120.451 155.549 124.059 160 124.059C164.451 124.059 168.059 120.451 168.059 116C168.059 111.549 164.451 107.941 160 107.941C155.549 107.941 151.941 111.549 151.941 116Z" fill="#FAF8FF"/>
<path d="M169.188 85.3398C169.821 83.2274 172.058 82.0078 174.087 82.8707C179.617 85.2222 184.492 88.9303 188.244 93.6782C192.825 99.4743 195.512 106.539 195.94 113.915C196.367 121.29 194.516 128.618 190.636 134.905C186.757 141.192 181.037 146.134 174.253 149.058C167.469 151.983 159.949 152.75 152.714 151.255C145.48 149.76 138.88 146.075 133.811 140.701C128.742 135.326 125.449 128.523 124.379 121.213C123.503 115.225 124.153 109.135 126.24 103.5C127.006 101.432 129.428 100.642 131.399 101.632C133.369 102.622 134.134 105.017 133.434 107.108C132.046 111.256 131.642 115.691 132.281 120.057C133.113 125.745 135.676 131.039 139.62 135.222C143.565 139.404 148.7 142.271 154.33 143.435C159.96 144.598 165.812 144.001 171.091 141.725C176.37 139.449 180.822 135.604 183.841 130.712C186.86 125.819 188.3 120.117 187.967 114.377C187.634 108.638 185.544 103.14 181.979 98.6297C179.244 95.1684 175.742 92.4173 171.772 90.5789C169.771 89.6523 168.555 87.4521 169.188 85.3398Z" fill="#EBE4FF"/>
<path d="M166.315 94.9274C166.949 92.8113 165.747 90.547 163.558 90.2446C159.6 89.6978 155.55 90.0683 151.728 91.3509C146.636 93.06 142.197 96.3044 139.023 100.638C135.85 104.972 134.096 110.183 134.004 115.553C133.912 120.924 135.485 126.192 138.508 130.632C141.531 135.073 145.855 138.467 150.886 140.35C155.917 142.233 161.408 142.512 166.603 141.147C171.799 139.783 176.444 136.843 179.901 132.731C182.496 129.645 184.325 126.013 185.267 122.13C185.788 119.983 184.122 118.035 181.92 117.849C179.719 117.664 177.825 119.323 177.158 121.429C176.449 123.67 175.304 125.762 173.775 127.581C171.383 130.427 168.167 132.462 164.571 133.407C160.974 134.351 157.174 134.158 153.692 132.855C150.209 131.552 147.216 129.202 145.124 126.128C143.031 123.055 141.942 119.409 142.006 115.691C142.07 111.973 143.284 108.367 145.48 105.367C147.677 102.367 150.749 100.121 154.274 98.9384C156.527 98.1825 158.894 97.8843 161.239 98.046C163.442 98.198 165.68 97.0436 166.315 94.9274Z" fill="#D4CAFE"/>
<path d="M153.612 105.807C152.447 103.949 153.006 101.443 155.093 100.771C157.187 100.096 159.411 99.8564 161.627 100.083C165.17 100.445 168.491 101.979 171.064 104.442C173.637 106.905 175.314 110.156 175.831 113.68C176.347 117.204 175.673 120.8 173.915 123.897C172.157 126.995 169.416 129.417 166.126 130.781C162.835 132.145 159.184 132.371 155.75 131.425C152.317 130.479 149.297 128.415 147.169 125.559C145.838 123.772 144.904 121.74 144.409 119.596C143.916 117.46 145.781 115.695 147.973 115.742C150.166 115.789 151.824 117.705 152.819 119.659C153.025 120.061 153.264 120.448 153.537 120.814C154.609 122.253 156.13 123.293 157.86 123.77C159.589 124.246 161.428 124.132 163.085 123.445C164.743 122.758 166.123 121.538 167.009 119.978C167.894 118.418 168.234 116.606 167.974 114.831C167.714 113.056 166.869 111.419 165.573 110.178C164.277 108.938 162.604 108.165 160.82 107.983C160.365 107.936 159.91 107.929 159.459 107.959C157.271 108.106 154.776 107.665 153.612 105.807Z" fill="#EBE4FF"/>
</g>
<defs>
<filter id="filter0_dd_10191_39834" x="32" y="54" width="256" height="148" filterUnits="userSpaceOnUse" color-interpolation-filters="sRGB">
<feFlood flood-opacity="0" result="BackgroundImageFix"/>
<feColorMatrix in="SourceAlpha" type="matrix" values="0 0 0 0 0 0 0 0 0 0 0 0 0 0 0 0 0 0 127 0" result="hardAlpha"/>
<feOffset dy="12"/>
<feGaussianBlur stdDeviation="10"/>
<feComposite in2="hardAlpha" operator="out"/>
<feColorMatrix type="matrix" values="0 0 0 0 0 0 0 0 0 0 0 0 0 0 0 0 0 0 0.03 0"/>
<feBlend mode="normal" in2="BackgroundImageFix" result="effect1_dropShadow_10191_39834"/>
<feColorMatrix in="SourceAlpha" type="matrix" values="0 0 0 0 0 0 0 0 0 0 0 0 0 0 0 0 0 0 127 0" result="hardAlpha"/>
<feOffset dy="2"/>
<feGaussianBlur stdDeviation="3"/>
<feComposite in2="hardAlpha" operator="out"/>
<feColorMatrix type="matrix" values="0 0 0 0 0 0 0 0 0 0 0 0 0 0 0 0 0 0 0.05 0"/>
<feBlend mode="normal" in2="effect1_dropShadow_10191_39834" result="effect2_dropShadow_10191_39834"/>
<feBlend mode="normal" in="SourceGraphic" in2="effect2_dropShadow_10191_39834" result="shape"/>
</filter>
</defs>
</svg>
